app/dist/common/images/frequentis-ag.svg

<svg height="18" viewBox="0 0 18 18" width="18" xmlns="http://www.w3.org/2000/svg"><path d="m0 0h18v18h-18z" fill="#023e84"/><path d="m12 4h-5v.5h5zm0 1h-5v.5h5zm-5 1h2v.63h-2zm2 2h-2v1h5v-.5h-3zm-2 1.5h5v.5h-3v1h-2zm2 2h-2v1h2zm-2 1.5h2v1h-2zm0-6h2v.5h-2z" fill="#f0f3fa"/></svg>

<!-- by TradingView --><svg width="18" height="18" viewBox="0 0 18 18" xmlns="http://www.w3.org/2000/svg"><path fill="#023E84" d="M0 0h18v18H0z"/><path d="M12 4H7v.5h5V4Zm0 1H7v.5h5V5ZM7 6h2v.63H7V6Zm2 2H7v1h5v-.5H9V8ZM7 9.5h5v.5H9v1H7V9.5Zm2 2H7v1h2v-1ZM7 13h2v1H7v-1Zm0-6h2v.5H7V7Z" fill="#F0F3FA"/></svg>
